dist/icons/svgs/sunrise-solid.svg

<svg xmlns="http://www.w3.org/2000/svg" width="24" height="24" fill="currentcolor" class="icon-sunrise-solid" viewBox="0 0 24 24">
  <path d="M15.0781 7.3125L13.75 6.10156V10.125C13.75 10.8281 13.1641 11.375 12.5 11.375C11.7969 11.375 11.25 10.8281 11.25 10.125V6.10156L9.88281 7.3125C9.375 7.78125 8.59375 7.74219 8.125 7.23438C7.65625 6.72656 7.69531 5.94531 8.20312 5.47656L11.6406 2.35156C12.1094 1.92188 12.8516 1.92188 13.3203 2.35156L16.7578 5.47656C17.2656 5.94531 17.3047 6.72656 16.8359 7.23438C16.4062 7.74219 15.5859 7.78125 15.0781 7.3125ZM16.6016 10.8281C16.7969 10.9062 16.9531 11.0625 16.9922 11.2969L17.7734 15.4766L21.9531 16.2578C22.1875 16.2969 22.3438 16.4531 22.4219 16.6484C22.5 16.8438 22.5 17.0781 22.3828 17.2344L21.25 18.875H17.1094C16.3672 17.0781 14.5703 15.75 12.5 15.75C10.3906 15.75 8.59375 17.0781 7.85156 18.875H3.75L2.57812 17.2344C2.46094 17.0781 2.46094 16.8438 2.53906 16.6484C2.61719 16.4531 2.77344 16.2969 3.00781 16.2578L7.22656 15.4766L7.96875 11.2969C8.00781 11.0625 8.16406 10.9062 8.35938 10.8281C8.55469 10.75 8.78906 10.75 8.94531 10.8672L12.5 13.3281L16.0156 10.8672C16.1719 10.75 16.4062 10.75 16.6016 10.8281ZM1.25 21.0625C1.25 20.5547 1.64062 20.125 2.1875 20.125H22.8125C23.3203 20.125 23.75 20.5547 23.75 21.0625C23.75 21.6094 23.3203 22 22.8125 22H2.1875C1.64062 22 1.25 21.6094 1.25 21.0625Z"/>
</svg>

<svg xmlns="http://www.w3.org/2000/svg" width="24" height="24" fill="currentColor" class="icon-sunrise-solid" viewBox="0 0 24 24">
  <path d="M15.078 7.313 13.75 6.102v4.023c0 .703-.586 1.25-1.25 1.25-.703 0-1.25-.547-1.25-1.25V6.102l-1.367 1.21a1.24 1.24 0 0 1-1.758-.078 1.24 1.24 0 0 1 .078-1.757l3.438-3.125a1.256 1.256 0 0 1 1.68 0l3.437 3.125a1.24 1.24 0 0 1 .078 1.757c-.43.508-1.25.547-1.758.079m1.524 3.515a.6.6 0 0 1 .39.469l.781 4.18 4.18.78c.235.04.39.196.469.391.078.196.078.43-.04.586l-1.132 1.641h-4.14c-.743-1.797-2.54-3.125-4.61-3.125-2.11 0-3.906 1.328-4.648 3.125H3.75l-1.172-1.64c-.117-.157-.117-.391-.039-.587a.6.6 0 0 1 .469-.39l4.219-.781.742-4.18a.6.6 0 0 1 .39-.469c.196-.078.43-.078.586.04l3.555 2.46 3.516-2.46c.156-.118.39-.118.586-.04M1.25 21.063c0-.508.39-.938.938-.938h20.625a.95.95 0 0 1 .937.938c0 .546-.43.937-.937.937H2.188c-.547 0-.938-.39-.938-.937"/>
</svg>
